X:1
T:Title
%%score { ( 1 3 ) | 2 }
L:1/8
Q:1/4=100
M:6/8
K:A
V:1 treble nm="Grand Piano"
V:3 treble 
V:2 bass 
V:1
 A=cA =G^EG | ^E6 | ^EAE =EDE | D6 | D^ED z A,A, | D^ED z A,A, | A=cA =G^EG | ^E6 | %8
w: Howard~E.~Smith * * * * *||||||||
[M:4/4] [A,=C]>[A,C] [A,CD]>[A,CE] [A,C^E]2 [A,CA]2 | z2 a=c' ^ea=ce | %10
w: ||
 [^A,D]>[A,D] [A,DE]>[A,DF] [A,D=G]2 [A,D^A]2 | z2 ^ad' =gadg | z4 [^Ad]4 | z4 [A=c]4 | %14
w: ||||
 [^EB]>[E^A] [EB]>[EA] [EB]2 [=G,B,E=G]2 | [E=G=c-]4 c2 z2 | %16
w: ||
 [A,=C]>[A,C] [A,CD]>[A,CE] [A,C^E]2 [A,CA]2 | z2 a=c' ^ea=ce | %18
w: ||
 [^A,D]>[A,D] [A,DE]>[A,DF] [A,D=G]2 [A,D^A]2 | z2 ^ad' =gadg | z4 [^Ad]4 | z4 [A=c]4 | %22
w: ||||
 =c>^A =A>=G A2 G2 | ^E6 z2 |] %24
w: ||
V:2
 ^E,[A,=C][A,C] =C,[=E,^A,][E,A,] | ^E,A,A, .A,3 | D,[^E,A,][E,A,] A,,[C,=G,][C,G,] | %3
 D,^E,E, .E,3 | ^A,,[D,^E,^A,][D,E,A,] ^E,,[=C,E,][C,E,] | %5
 ^A,,[D,^E,^A,][D,E,A,] ^E,,[=C,E,][C,E,] | ^E,[A,=C][A,C] =C,[=E,^A,][E,A,] | ^E,=C,A,, .^E,,3 | %8
[M:4/4] [^E,,^E,]2 [=C,,=C,]2 [E,,E,]2 [C,,C,]2 | [^E,,^E,]2 [=C,,=C,]2 [E,,E,]2 [C,,C,]2 | %10
 [=G,,=G,]2 [D,,D,]2 [G,,G,]2 [D,,D,]2 | [=G,,=G,]2 [D,,D,]2 [G,,G,]2 [D,,D,]2 | %12
 [=G,,=G,]2 [^A,E]2 [=C,,=C,]2 [A,=C]2 | [^E,,^E,]2 [E,A,=C]2 [=C,,=C,]2 [E,A,]2 | %14
 [D,,D,]2 [^E,=G,B,]2 [=G,,,=G,,]2 E,2 | =C,2 ^A,,2 [=A,,A,]2 [=G,,=G,]2 | %16
 [^E,,^E,]2 [=C,,=C,]2 [E,,E,]2 [C,,C,]2 | [^E,,^E,]2 [=C,,=C,]2 [E,,E,]2 [C,,C,]2 | %18
 [=G,,=G,]2 [D,,D,]2 [G,,G,]2 [D,,D,]2 | [=G,,=G,]2 [D,,D,]2 [G,,G,]2 [D,,D,]2 | %20
 [=G,,=G,]2 [^A,E]2 [=C,,=C,]2 [A,=C]2 | [^E,,^E,]2 [E,A,=C]2 [=C,,=C,]2 [E,A,]2 | %22
 [=C,=C]2 [^A,CE]2 [=C,,C,]2 [C,E,A,]2 | ^E,2 =C,2 ^E,,2 z2 |] %24
V:3
 x6 | z =CC .C3 | x6 | z A,A, .A,3 | z3 =C3 | z3 =C3 | x6 | z [A,=C][A,C] .[A,C]3 |[M:4/4] x8 | %9
 [A,=C]6 z2 | x8 | [^A,D]6 z2 | [^Ad]>[=Ac] [^Ad]>[=Ac] z2 E2 | [A=c]>[GB] [Ac]>[GB] z2 =C2 | x8 | %15
 =C2 ^A,2 ^E2 ^A2 | x8 | [A,=C]6 z2 | x8 | [^A,D]6 z2 | [^Ad]>[=Ac] [^Ad]>[=Ac] z2 E2 | %21
 [A=c]>[GB] [Ac]>[GB] z2 =C2 | x8 | z2 [A,=C]4 z2 |] %24

